X:1
T:Title
%%score ( 1 2 ) ( 3 4 )
L:1/8
Q:1/4=100
M:6/8
K:F
V:1 treble nm="Grand Piano, Soprano"
V:2 treble 
V:3 bass nm="Choir Pad, How Far to the City of Gold?"
V:4 bass 
V:1
 c c2 d/d/cc | z c2- c2- c/ z/ | z3 z .F2 | [FA] [EG]2- [EG]2- [EG]/ z/ | [FA] [GB]2 [GB] [GB]2 | %5
w: By~Francis~Augustus~Blackmer,~1915 * * * * *|||||
 [GB] [FA]2 [FA] [FA]2 | [FA] [EG]2 [Ec][Ec][Fd] | [D=B] [Ec]2- [Ec]2- [Ec]/ z/ | %8
w: |||
 [Ec] [Fc]2 [FA][EG][FA] | [GB] [FA]2- [FA]2- [FA]/ z/ | [Fc] [Fc]2 [FA][EG][FA] | %11
w: |||
 [GB] [FA]2- [FA]2- [FA]/ z/ | c F2 A c2 | A G2 B d2 | [Bd] [Ac]2 [FA] [EA]2 | [EG] F2- F2- F/ z/ | %16
w: |||||
 [Fc] [Fc]2- [Fc]2- [Fc]/ z/ | [Fc] [Fd]2- [Fd]2- [Fd]/ z/ | [Fd] [Fc]2 [FA] [Fc]2 | %19
w: |||
 [FA] [EG]2- [EG]2- [EG]/ z/ | c F2 A c2 | A G2 B d2 | [_Af] [=Ac]2 [FA] [EA]2 | [EG] F2 D C2- | %24
w: |||||
 C6 |] %25
w: |
V:2
 x6 | [FA] F2 F F2 | [FA] [CF]2 [CF]C-[CG] | x6 | x6 | x6 | x6 | x6 | x6 | x6 | x6 | x6 | x6 | x6 | %14
 x6 | x6 | x6 | x6 | x6 | x6 | x6 | x6 | x6 | x6 | x6 |] %25
V:3
 z6 | [F,A,] [F,A,]2 [F,A,] [F,A,]2 | [F,C] [F,A,]2 [F,A,]A,B, | [F,C] [C,C]2- [C,C]2- [C,C]/ z/ | %4
 z6 | z6 | z6 | z6 | [C,B,] [F,A,]2 [F,C] [C,C]2 | [C,C] [F,C]2- [F,C]2- [F,C]/ z/ | %10
 [F,A,] [F,A,]2 [F,C] [C,C]2 | [C,C] [F,C]2- [F,C]2- [F,C]/ z/ | C F,2 A, C2 | %13
 A, G,2 B,[K:treble] D2 | [B,F] [CF]2 C[K:bass] [C,C]2 | [C,B,] [F,A,]2- [F,A,]2- [F,A,]/ z/ | %16
 [F,A,] [F,A,]2 [F,A,] [F,A,]2 | [F,A,] [B,,B,]2 [B,,B,] [B,,B,]2 | [B,,B,] [F,A,]2 [F,C] [A,C]2 | %19
 [F,C] [C,C]2 [C,C] [C,C]2 | C F,2 A, C2 | A, G,2 B,[K:treble] D2 | [=B,D] [CF]2 C[K:bass] [C,C]2 | %23
 [C,B,] A,2 B, A,2- | A,6 |] %25
V:4
 x6 | x6 | z3 z F,2 | x6 | x6 | x6 | x6 | x6 | x6 | x6 | x6 | x6 | x6 | x4[K:treble] x2 | %14
 x4[K:bass] x2 | x6 | x6 | x6 | x6 | x6 | x6 | x4[K:treble] x2 | x4[K:bass] x2 | z F,2- F,3- | %24
 F,6 |] %25

